X: 1
T: String Quartet in D Minor opus 42 no 1 mvt 4
C: Franz Joseph Haydn
%%abc-version 2.0
%%abcx-abcm2ps-target-version 5.9.1 (29 Sep 2008)
%%abc-creator hum2abc beta
%%abcx-conversion-date 2021/02/14 14:38:31
%%abc-copyright Copyright (c) 1994, 2000 Center for Computer Assisted Research in the Humanities
%%abc-edited-by Frances Bennion
%%abcx-initial-encoding-date 1997/04/15
%%gracespace 0 6 6
%%humdrum-veritas 679933320
%%humdrum-veritas-data 2752339101
%%linebreak <none>
%%barnumbers 0
L: 1/8
M: 2/4
N: Derived from op42-04.krn
Q: "Finale: Presto"
%%staves [1 2 3 4]
V: 1
V: 2
V: 3 clef=alto
V: 4 clef=bass
K: F
[V:1]z4 [I:setbarnb2] |
[V:2]d4 |
[V:3]zD FD |
[V:4]z4 |
[V:1]z4 |
[V:2]A4 |
[V:3]z^C EA, |
[V:4]z4 |
[V:1]z4 |
[V:2]FF GF/G/ |
[V:3]DD B,B, |
[V:4]z4 |
[V:1]z3 e |
[V:2]A2 z^c |
[V:3]A,2 zA, |
[V:4]z3 A, |
[V:1]fe fe |
[V:2]d^c dc |
[V:3]A,A, A,A, |
[V:4]D,A, D,A, |
[V:1]f>g ab |
[V:2]d>e fg |
[V:3]A,2 zG, |
[V:4]D,2 zG,, |
[V:1]ag fe |
[V:2]fe d^c |
[V:3]A,3 G |
[V:4]A,,A,, A,,A,, |
[V:1]d'4 |
[V:2]dd fd |
[V:3]F2 z2 |
[V:4]D,2 z2 |
[V:1]a4 |
[V:2]z^c eA |
[V:3]z4 |
[V:4]z4 |
[V:1]ff gf/g/ |
[V:2]dd BB |
[V:3]z4 |
[V:4]z4 |
[V:1]aA cA |
[V:2]a4 |
[V:3]z4 |
[V:4]z4 |
[V:1]z^G =BE |
[V:2]e4 |
[V:3]z4 |
[V:4]z4 |
[V:1]A4 |
[V:2]cc dc/d/ |
[V:3]F4 |
[V:4]z4 |
[V:1]Gc de |
[V:2]eE FG |
[V:3]C4 |
[V:4]z4 |
[V:1]fc f2- |
[V:2]Ac dc/d/ |
[V:3]A,A, B,A,/B,/ |
[V:4]F,4 |
[V:1]f2 e2 |
[V:2]GA BA/B/ |
[V:3]C2 GF/G/ |
[V:4]C,4 |
[V:1]fe/f/ gf |
[V:2]c2 z2 |
[V:3]AC DD |
[V:4]A,,A,, B,,A,,/B,,/ |
[V:1]ee/f/ ga |
[V:2]zc/d/ ef |
[V:3]G,2 zF |
[V:4]C,2 zF, |
[V:1]ba ba |
[V:2]gf gf |
[V:3]EF EF |
[V:4]C,F, C,F, |
[V:1]ge/f/ ga |
[V:2]ec/d/ ef |
[V:3]c2 zF |
[V:4]C2 zF, |
[V:1]ba ba |
[V:2]gf gf |
[V:3]EF EF |
[V:4]C,F, C,F, |
[V:1]g2 z2 |
[V:2]e2 z2 |
[V:3]c2 z2 |
[V:4]C,2 z2 |
[V:1]c'4 |
[V:2]_e4 |
[V:3]^F4 |
[V:4]A,4 |
[V:1]^f4 |
[V:2]c4 |
[V:3]A4 |
[V:4]D4 |
[V:1]b4 |
[V:2]d4 |
[V:3]G4 |
[V:4]G,4 |
[V:1]e4 |
[V:2]G4 |
[V:3]B4 |
[V:4]C4 |
[V:1]ff gf/g/ |
[V:2]F4- |
[V:3]AA BA/B/ |
[V:4]F,F, F,F, |
[V:1]ff ba/b/ |
[V:2]F4- |
[V:3]AA dc/d/ |
[V:4]F,F, F,F, |
[V:1]aa gf/g/ |
[V:2]F4- |
[V:3]cc BA/B/ |
[V:4]F,F, F,F, |
[V:1]f4- |
[V:2]F2 BA/B/ |
[V:3]A2 FF |
[V:4]F,F, D,C,/D,/ |
[V:1]f4- |
[V:2]AA dc/d/ |
[V:3]FF FF |
[V:4]C,C, B,,A,,/B,,/ |
[V:1]f4- |
[V:2]cc BA/B/ |
[V:3]FF FF |
[V:4]A,,A, G,F,/G,/ |
[V:1]f2 ^fe/f/ |
[V:2]AA AG/A/ |
[V:3]FF CC |
[V:4]F,F, D,D, |
[V:1]ga bd' |
[V:2]Bc dB |
[V:3]DC B,D |
[V:4]B,,A,, G,,G,, |
[V:1]f2 e2 |
[V:2]A2 B2 |
[V:3]CC GG |
[V:4]C,C, C,C, |
[V:1]f2 ze |
[V:2]A2 BA/B/ |
[V:3]F2 GF/G/ |
[V:4]F,,2 zC, |
[V:1]ff ze |
[V:2]AA BA/B/ |
[V:3]FF GF/G/ |
[V:4]F,,2 zC, |
[V:1]ff ze |
[V:2]AA BA/B/ |
[V:3]FF GF/G/ |
[V:4]F,,2 zC, |
[V:1]fe fe |
[V:2]AB AB |
[V:3]FG FG |
[V:4]F,,C, F,,C, |
[V:1]f2 z2 |
[V:2]A2 z2 |
[V:3]F2 z2 |
[V:4]F,,2 z2 |
[V:1]d'4 |
[V:2]^F4 |
[V:3]A,4 |
[V:4]D,,D, D,D, |
[V:1]a4 |
[V:2]A4 |
[V:3]^F4 |
[V:4]D,,D, D,D, |
[V:1]^ff gf/g/ |
[V:2]cc BA/B/ |
[V:3]AA GG |
[V:4]D,,D, D,D, |
[V:1]a2 z2 |
[V:2]AA G^F/G/ |
[V:3]^FF ED/E/ |
[V:4]D,,2 z2 |
[V:1]aa ba/b/ |
[V:2]^F2 z2 |
[V:3]D2 z2 |
[V:4]^F,F, G,F,/G,/ |
[V:1]c'2 z2 |
[V:2]AA BA/B/ |
[V:3]^FF GF/G/ |
[V:4]A,2 z2 |
[V:1]c'c' d'c'/d'/ |
[V:2]c2 z2 |
[V:3]AA BA/B/ |
[V:4]z4 |
[V:1]_e'2 z2 |
[V:2]z4 |
[V:3]c2 z2 |
[V:4]z4 |
[V:1]z4 |
[V:2]z4 |
[V:3]z4 |
[V:4]z4 |
[V:1]z4 |
[V:2]g4 |
[V:3]zG BG |
[V:4]z4 |
[V:1]z4 |
[V:2]d4 |
[V:3]z^F AD |
[V:4]z4 |
[V:1]z4 |
[V:2]BB cB/c/ |
[V:3]G4 |
[V:4]_E,4 |
[V:1]z4 |
[V:2]dB cd |
[V:3]FD _EF |
[V:4]B,,4 |
[V:1]z4 |
[V:2]_e4 |
[V:3]B,B cB/c/ |
[V:4]G,,G,, A,,G,,/A,,/ |
[V:1]dd ed/e/ |
[V:2]d2 z2 |
[V:3]BB GF/G/ |
[V:4]B,,2 z2 |
[V:1]f2 z2 |
[V:2]AA =BA/B/ |
[V:3]F2 z2 |
[V:4]F,F, D,C,/D,/ |
[V:1]_ee ^f=e/f/ |
[V:2]c2 z2 |
[V:3]cc AG/A/ |
[V:4]C,2 z2 |
[V:1]g2 z2 |
[V:2]BB ^c=B/c/ |
[V:3]G2 z2 |
[V:4]G,G, E,D,/E,/ |
[V:1]ff ^g^f/g/ |
[V:2]d2 z2 |
[V:3]dd BB |
[V:4]D,2 z2 |
[V:1]aa c'a |
[V:2]cc ec |
[V:3]A4 |
[V:4]z4 |
[V:1]z^g =be |
[V:2]=BA ^G^g |
[V:3]E4 |
[V:4]z4 |
[V:1]e'e' d'c' |
[V:2]ac' =ba |
[V:3]CC DC/D/ |
[V:4]z4 |
[V:1]=b3 c' |
[V:2]^g3 a |
[V:3]E2 z2 |
[V:4]zE, D,C, |
[V:1]d'd' c'=b |
[V:2]=bb a^g |
[V:3]z4 |
[V:4]=B,,2 E,2 |
[V:1]af ed |
[V:2]aa gf |
[V:3]z4 |
[V:4]A,,2 z2 |
[V:1]^c3 d |
[V:2]e3 f |
[V:3]zA GF |
[V:4]z4 |
[V:1]ee d^c |
[V:2]gg fe |
[V:3]E2 A2 |
[V:4]z4 |
[V:1]d2 z2 |
[V:2]fA d2- |
[V:3]FE/F/ AF |
[V:4]D,4 |
[V:1]z4 |
[V:2]d2 ^c2 |
[V:3]EF GF/E/ |
[V:4]A,,4 |
[V:1]z4 |
[V:2]dA GF |
[V:3]AF ED |
[V:4]F,,F,, G,,F,,/G,,/ |
[V:1]z4 |
[V:2]E^C/D/ EF |
[V:3]^CA,/=B,/ CD |
[V:4]A,,4- |
[V:1]z4 |
[V:2]EF GF |
[V:3]^CD ED |
[V:4]A,,A,, A,,A,, |
[V:1]z^c/d/ ef |
[V:2]EA/=B/ ^cd |
[V:3]^CA GF |
[V:4]A,,4- |
[V:1]ef gf |
[V:2]^cd ed |
[V:3]GF ^CD |
[V:4]A,,A,, A,,A,, |
[V:1]e2 z2 |
[V:2]^c2 z2 |
[V:3]A,2 z2 |
[V:4]A,,2 z2 |
[V:1]b4 |
[V:2]_E4 |
[V:3]_E4- |
[V:4]G,,4 |
[V:1]_e4 |
[V:2]B4 |
[V:3]E4 |
[V:4]G,4 |
[V:1]a4 |
[V:2]D4 |
[V:3]D4- |
[V:4]F,,4 |
[V:1]d4 |
[V:2]A4 |
[V:3]D4 |
[V:4]F,4 |
[V:1]g4 |
[V:2]^C4 |
[V:3]G,4 |
[V:4]E,,4 |
[V:1]^c4 |
[V:2]G4 |
[V:3]E,4 |
[V:4]A,,4 |
[V:1]dd ed/e/ |
[V:2]FF GF/G/ |
[V:3][A,2F,2] z2 |
[V:4]D,,D, D,D, |
[V:1]dd gf/g/ |
[V:2]FF BA/B/ |
[V:3]z4 |
[V:4]D,D, D,D, |
[V:1]ff ed/e/ |
[V:2]AA GF/G/ |
[V:3]z4 |
[V:4]D,D, D,D, |
[V:1]d'4- |
[V:2]F2 z2 |
[V:3]z2 GF/G/ |
[V:4]D,D, B,A,/B,/ |
[V:1]d'4- |
[V:2]z4 |
[V:3]FF BA/B/ |
[V:4]A,A, G,F,/G,/ |
[V:1]d'4- |
[V:2]z4 |
[V:3]AA GF/G/ |
[V:4]F,F, E,D,/E,/ |
[V:1]d'd' c'b/c'/ |
[V:2]z2 AG/A/ |
[V:3]FF DD |
[V:4]D,D, ^F,F, |
[V:1]bb ag |
[V:2]Bg fe |
[V:3]DG, A,B, |
[V:4]G,G, G,G, |
[V:1]f2 e2 |
[V:2]d2 ^c2 |
[V:3]A,A, GG |
[V:4]A,A, A,,A,, |
[V:1]d2 z^c |
[V:2]dF GF/G/ |
[V:3]FD ED/E/ |
[V:4]D,2 zA, |
[V:1]dd z^c' |
[V:2]FF GF/G/ |
[V:3]DD ED/E/ |
[V:4]D,2 zA, |
[V:1]d'd' z^c |
[V:2]FF GF/G/ |
[V:3]DD ED/E/ |
[V:4]D,2 zA, |
[V:1]d^c dc |
[V:2]FG FG |
[V:3]DE DE |
[V:4]D,A, D,A, |
[V:1]d2 z2 |
[V:2]F2 z2 |
[V:3]D2 z2 |
[V:4]D,2 z2 |
[V:1]d'4 |
[V:2]d4 |
[V:3]D4 |
[V:4]D,4 |
[V:1]a4 |
[V:2]A4 |
[V:3]A,4 |
[V:4]A,,4 |
[V:1]ff gf/g/ |
[V:2]FF GF/G/ |
[V:3]F,F, G,F,/G,/ |
[V:4]F,,F,, G,,F,,/G,,/ |
[V:1]a2 z2 |
[V:2]A2 z2 |
[V:3]A,2 z2 |
[V:4]A,,2 z2 |
[V:1]ee fe/f/ |
[V:2]^cc dc/d/ |
[V:3]z4 |
[V:4]z4 |
[V:1]g2 z2 |
[V:2]e2 z2 |
[V:3]z4 |
[V:4]z4 |
[V:1]^c4 |
[V:2]BB BA/G/ |
[V:3]GG GF/E/ |
[V:4]A,,4 |
[V:1]d2 z2 |]
[V:2]F2 z2 |]
[V:3]D2 z2 |]
[V:4]D,,2 z2 |]

